X: 78
T: Bai ling niao
L: 1/16
M: 2/4
K: C
z2 d> d d g f a [I:setbarnb 1]| 
g f e d d ^c e d- | 
d A/ A/ A B d c e d- | 
d c/ c/ B/ A/ c g2 f d- | 
d c B A c G3- | 
G8 | 
z G ^F G A c B/ c/ A- | 
A f/ f/ e d d> B c A- | 
A D E F G> c B/ c/ A- | 
A F E> CD4 | 
D G ^F G A c B/ c/ A- | 
A f e d d> B c A- | 
A D E F G> c B/ c/ A | 
G F E CD4 | 
D G ^F G A c B/ c/ A- | 
A f e> d d> B c A- | 
A D E F G c B/ c/ A | 
G F E> CD4 |]

@@@ Tune index: 8746
